!!!OTL: Ten Little Indians
!!!COM: unknown
!!!ODT: unknown
!!!YOR: The Folksong Fake Book
!!!YOY: 2000
!!!AST: Children's song
!!!YEC: Brian Luke, 2001
**kern	**harm
*k[f#c#]	*k[f#c#]
*M4/4	*M4/4
*D:	*D:
*>A	*>A
=1	=1
4d	I
8d	.
8d	.
4d	.
8d	.
8d	.
=2	=2
4f#	.
8a	.
8a	.
4f#	.
4d	.
=3	=3
4e	V7
8e	.
8e	.
4e	.
8e	.
8e	.
=4	=4
4c#	.
8e	.
8e	.
4c#	.
4A	.
=5	=5
4d	I
8d	.
8d	.
4d	.
8d	.
8d	.
=6	=6
4f#	.
8a	.
8a	.
4f#	.
4d	.
=7	=7
4a	V7
8g	.
8g	.
4f#	.
4e	.
=8	=8
2d	I;
*-	*-
